assets/misc-grey/MiscGrey89.svg

<svg width="32" height="37" viewBox="0 0 32 37" fill="none" xmlns="http://www.w3.org/2000/svg">
<path fill-rule="evenodd" clip-rule="evenodd" d="M26.44 6.05499H21.34C20.51 6.05499 19.84 6.72699 19.84 7.55499C19.84 8.38299 20.51 9.05499 21.34 9.05499H26.44C27.46 9.05499 28.29 9.88499 28.29 10.905V32.034C28.29 33.055 27.46 33.885 26.44 33.885H5.30996C4.28996 33.885 3.45996 33.055 3.45996 32.034V10.905C3.45996 9.88499 4.28996 9.05499 5.30996 9.05499H9.71996C10.55 9.05499 11.22 8.38299 11.22 7.55499C11.22 6.72699 10.55 6.05499 9.71996 6.05499H5.30996C2.62996 6.05499 0.459961 8.22999 0.459961 10.905V32.034C0.459961 34.709 2.62996 36.885 5.30996 36.885H26.44C29.11 36.885 31.29 34.709 31.29 32.034V10.905C31.29 8.22999 29.11 6.05499 26.44 6.05499Z" fill="#1A1919"/>
<path fill-rule="evenodd" clip-rule="evenodd" d="M15.6 14.268C16.43 14.268 17.1 13.596 17.1 12.768V2.19202C17.1 1.36402 16.43 0.692017 15.6 0.692017C14.77 0.692017 14.1 1.36402 14.1 2.19202V12.768C14.1 13.596 14.77 14.268 15.6 14.268Z" fill="#1A1919"/>
</svg>

<svg xmlns="http://www.w3.org/2000/svg" viewBox="0 0 32 37"><path fill-rule="evenodd" d="M26.44 6.055h-5.1a1.5 1.5 0 100 3h5.1c1.02 0 1.85.83 1.85 1.85v21.129c0 1.021-.83 1.851-1.85 1.851H5.31c-1.02 0-1.85-.83-1.85-1.851V10.905c0-1.02.83-1.85 1.85-1.85h4.41a1.5 1.5 0 100-3H5.31a4.851 4.851 0 00-4.85 4.85v21.129a4.852 4.852 0 004.85 4.851h21.13c2.67 0 4.85-2.176 4.85-4.851V10.905c0-2.675-2.18-4.85-4.85-4.85z" clip-rule="evenodd"/><path fill-rule="evenodd" d="M15.6 14.268a1.5 1.5 0 001.5-1.5V2.192a1.5 1.5 0 10-3 0v10.576c0 .828.67 1.5 1.5 1.5z" clip-rule="evenodd"/></svg>
